X:167
T:Sporting Days of Easter (r)
B:NFID.240c
167sport
S:JL
L:1/8
M:C
R:reel
Q:360
K:G
BG~G2 DGGG|Bdef gded|BG~G2 DGGA|BGAG EDD2:|
g3e fgaf|g2ge fdd2|g2ge fga2|bgaf gfed|
gage fgaf|g2ge fdd2|g2fg a2ga|bgaf gfed||

%%%

